svgs/regular/puzzle-piece-simple.svg

<svg xmlns="http://www.w3.org/2000/svg" viewBox="0 0 640 512"><!-- Font Awesome Pro 6.0.0-alpha2 by @fontawesome - https://fontawesome.com License - https://fontawesome.com/license (Commercial License) --><path d="M551.197 153.6C543.24 153.6 535.455 154.789 527.998 157.076V123.199C527.998 81.734 494.264 48 452.799 48H367.904C349.293 48 332.385 55.439 320 67.5C307.615 55.439 290.705 48 272.094 48H187.197C145.732 48 111.998 81.734 111.998 123.199V157.076C104.543 154.789 96.756 153.6 88.799 153.6C39.006 153.6 0 198.58 0 256S39.006 358.4 88.799 358.4C96.756 358.4 104.543 357.211 111.998 354.924V388.801C111.998 430.266 145.732 464 187.197 464H272.094C290.705 464 307.615 456.559 320 444.5C332.385 456.559 349.293 464 367.904 464H452.799C494.264 464 527.998 430.266 527.998 388.801V354.924C535.455 357.211 543.24 358.4 551.197 358.4C600.992 358.4 639.998 313.42 639.998 256S600.992 153.6 551.197 153.6ZM551.197 310.4C539.398 310.4 528.861 303.646 521.451 292.939C517.389 287.072 511.041 283.199 503.904 283.199C492.469 283.199 479.998 292.469 479.998 303.904V388.801C479.998 403.822 467.82 416 452.799 416H367.904C356.469 416 347.199 406.73 347.199 395.295C347.199 388.156 351.07 381.811 356.939 377.748C367.646 370.336 374.398 359.797 374.398 348C374.398 325.467 350.043 307.201 319.998 307.201C289.955 307.201 265.6 325.467 265.6 348C265.6 359.797 272.35 370.336 283.059 377.748C288.928 381.811 292.799 388.156 292.799 395.295C292.799 406.73 283.527 416 272.094 416H187.197C172.176 416 159.998 403.822 159.998 388.801V303.904C159.998 292.469 147.529 283.199 136.094 283.199C128.957 283.199 122.607 287.072 118.545 292.939C111.137 303.646 100.598 310.4 88.799 310.4C66.266 310.4 48 286.043 48 256S66.266 201.6 88.799 201.6C100.598 201.6 111.137 208.352 118.545 219.059C122.607 224.928 128.957 228.801 136.094 228.801C147.529 228.801 159.998 219.436 159.998 208V123.199C159.998 108.178 172.176 96 187.197 96H272.094C283.527 96 292.799 105.268 292.799 116.703C292.799 123.842 288.928 130.189 283.059 134.252C272.35 141.662 265.6 152.201 265.6 164C265.6 186.533 289.955 204.799 319.998 204.799C350.043 204.799 374.398 186.533 374.398 164C374.398 152.201 367.646 141.662 356.939 134.252C351.07 130.189 347.199 123.842 347.199 116.703C347.199 105.268 356.469 96 367.904 96H452.799C467.82 96 479.998 108.178 479.998 123.199V208C479.998 219.436 492.469 228.801 503.904 228.801C511.041 228.801 517.389 224.928 521.451 219.059C528.861 208.352 539.398 201.6 551.197 201.6C573.73 201.6 591.998 225.957 591.998 256S573.73 310.4 551.197 310.4Z"/></svg>

<svg xmlns="http://www.w3.org/2000/svg" viewBox="0 0 640 512"><!--! Font Awesome Pro 6.3.0 by @fontawesome - https://fontawesome.com License - https://fontawesome.com/license (Commercial License) Copyright 2023 Fonticons, Inc. --><path d="M551.2 153.6c-7.957 0-15.74 1.189-23.2 3.477V123.2C528 81.73 494.3 48 452.8 48h-84.89c-18.61 0-35.52 7.439-47.9 19.5C307.6 55.44 290.7 48 272.1 48H187.2C145.7 48 112 81.73 112 123.2v33.88C104.5 154.8 96.76 153.6 88.8 153.6C39.01 153.6 .0004 198.6 .0004 256s39.01 102.4 88.8 102.4c7.957 0 15.74-1.189 23.2-3.477v33.88C112 430.3 145.7 464 187.2 464h84.9c18.61 0 35.52-7.441 47.91-19.5C332.4 456.6 349.3 464 367.9 464h84.89C494.3 464 528 430.3 528 388.8v-33.88c7.457 2.287 15.24 3.477 23.2 3.477C600.1 358.4 640 313.4 640 256S600.1 153.6 551.2 153.6zM551.2 310.4c-27.57 0-26.96-27.2-47.29-27.2C492.5 283.2 480 292.5 480 303.9v84.9C480 403.8 467.8 416 452.8 416h-84.89c-11.44 0-20.71-9.27-20.71-20.71c0-20.14 27.2-19.76 27.2-47.29c0-22.53-24.36-40.8-54.4-40.8c-30.04 0-54.4 18.27-54.4 40.8c0 27.57 27.2 26.96 27.2 47.29C292.8 406.7 283.5 416 272.1 416H187.2C172.2 416 160 403.8 160 388.8V303.9c0-11.44-12.47-20.71-23.9-20.71c-20.14 0-19.75 27.2-47.29 27.2C66.27 310.4 48 286 48 256s18.27-54.4 40.8-54.4c27.57 0 26.96 27.2 47.29 27.2C147.5 228.8 160 219.4 160 208V123.2C160 108.2 172.2 96 187.2 96h84.9c11.43 0 20.71 9.268 20.71 20.7c0 20.14-27.2 19.76-27.2 47.3c0 22.53 24.36 40.8 54.4 40.8c30.04 0 54.4-18.27 54.4-40.8c0-27.57-27.2-26.96-27.2-47.3C347.2 105.3 356.5 96 367.9 96h84.89C467.8 96 480 108.2 480 123.2V208c0 11.44 12.47 20.8 23.91 20.8c20.14 0 19.75-27.2 47.29-27.2C573.7 201.6 592 225.1 592 256S573.7 310.4 551.2 310.4z"/></svg>
